X:1
T:The Old Grey Mare
T:The Old grey mare
T:unknown
C:Frank Panella
Z:All Rights Reserved
L:1/8
M:4/4
K:G
V:1 treble 
%%MIDI program 4
V:1
 z4 z2"D7" D2 |"G" G2 G2 G2"D7" A2 |"G" B2 B^A B=A G2 |"D7" A2 A^G A=G F2 |"G" B2 B^A B=AGD | %5
w: The|old grey mare she|aint what she used to be|aint what she used to be|aint what she used to be the|
"G" G2 G2 G2"D7" A2 |"G" B2 B^A B=A G2 |"D7" AA A2 B2 A2 |"G" G2 A2 B2 c2 |"G" dddd"C" e2 e2 | %10
w: old grey mare she|aint what she used to be|man- y long years a-|go * * *|man- y long * years a-|
"G" d8 |"G" BBBB"C" c2 c2 |"G" B6"D7" D2 |"G" G2 G2 G2"D7" A2 |"G" B2 B^A B=A G2 | %15
w: go-|man- y long * years a-|go the|old grey mare she|aint what she used to be|
"D7" A2 A^G A=G F2 |"G" B2 B^A B=AGD |"D7" G2 G2 G2 A2 |"G" B2 B^A B=A G2 |"D7" AAAA B2 A2 | %20
w: aint what she used to be|aint what she used to be the|old grey mare she|aint what she used to be|man- y long * years a-|
"G" G8 |] %21
w: go.-|

